src/icons/play.svg

<?xml version="1.0" encoding="UTF-8"?>
<svg width="512px" height="512px" viewBox="0 0 512 512" version="1.1" xmlns="http://www.w3.org/2000/svg" xmlns:xlink="http://www.w3.org/1999/xlink">
    <!-- Generator: Sketch 62 (91390) - https://sketch.com -->
    <title>play</title>
    <desc>Created with Sketch.</desc>
    <g id="play" stroke="none" stroke-width="1" fill="none" fill-rule="evenodd">
        <path d="M380.3,230.25 L148.3,92.15 C145.5,90.45 142.5,89.45 139.2,89.45 C130.1,89.45 122.7,96.95 122.7,106.15 L122.6,106.15 L122.6,392.85 L122.7,392.85 C122.7,402.05 130.1,409.55 139.2,409.55 C142.6,409.55 145.4,408.35 148.5,406.75 L380.3,268.85 C385.8,264.25 389.3,257.35 389.3,249.65 C389.3,241.95 385.8,234.85 380.3,230.25 L380.3,230.25 Z" id="Path" fill="#000000" fill-rule="nonzero"></path>
    </g>
</svg>

<svg xmlns="http://www.w3.org/2000/svg" width="512" height="512" viewBox="0 0 512 512">
    <path d="M380.3 230.25l-232-138.1c-2.8-1.7-5.8-2.7-9.1-2.7-9.1 0-16.5 7.5-16.5 16.7h-.1v286.7h.1c0 9.2 7.4 16.7 16.5 16.7 3.4 0 6.2-1.2 9.3-2.8l231.8-137.9c5.5-4.6 9-11.5 9-19.2 0-7.7-3.5-14.8-9-19.4z"/>
</svg>
